icons/desktop/20/briefcase-20.svg

<svg width="20" height="20" viewBox="0 0 20 20" fill="none" xmlns="http://www.w3.org/2000/svg">
<path fill-rule="evenodd" clip-rule="evenodd" d="M10 0C10.7242 0 11.3973 0.0487635 12.0107 0.125977C13.5766 0.323205 14.75 1.65218 14.75 3.23145V3.70117C15.5609 3.76917 16.3993 3.85554 17.2627 3.9668C18.8205 4.16758 20 5.4946 20 7.07227V14.9297C20 16.489 18.854 17.8265 17.292 18.0293C15.1258 18.3096 12.6793 18.5 10 18.5C7.86922 18.5 5.42458 18.3805 2.7373 18.0342C1.17954 17.8334 0 16.5064 0 14.9287V7.07129C0 5.51198 1.14602 4.17452 2.70801 3.97168C3.51686 3.86702 4.36562 3.77456 5.25 3.7002V3.23047C5.25 1.67502 6.401 0.32782 7.96289 0.128906L8.52344 0.0673828C9.06826 0.0174397 9.5643 0 10 0ZM10 5.25098C8.59839 5.25098 7.26277 5.30528 6 5.39746V16.6025C7.43162 16.7069 8.76972 16.75 10 16.75C11.4016 16.75 12.7372 16.6947 14 16.6025V5.39746C12.5684 5.29307 11.2303 5.25098 10 5.25098ZM4.25 5.55371C3.80026 5.60098 3.36126 5.65169 2.93359 5.70703C2.25983 5.79442 1.75 6.37477 1.75 7.07129V14.9287C1.75 15.6191 2.2687 16.2086 2.96094 16.2979C3.39726 16.3541 3.82721 16.4019 4.25 16.4463V5.55371ZM15.75 16.4463C16.1997 16.399 16.6388 16.3493 17.0664 16.2939C17.7402 16.2066 18.25 15.6262 18.25 14.9297V7.07227C18.25 6.38193 17.7313 5.79235 17.0391 5.70312C16.6027 5.64689 16.1728 5.59812 15.75 5.55371V16.4463ZM10 1.75C9.48284 1.75 8.86864 1.77744 8.18262 1.86426L8.18359 1.86523C7.51549 1.95032 7 2.53592 7 3.23047V3.58105C7.96332 3.52994 8.96418 3.50098 10 3.50098C10.9409 3.50098 11.9429 3.52522 13 3.58105V3.23145C13 2.53497 12.4837 1.94941 11.792 1.8623C11.2455 1.79352 10.6458 1.75 10 1.75Z" fill="black"/>
</svg>

<!-- This Source Code Form is subject to the terms of the Mozilla Public
   - License, v. 2.0. If a copy of the MPL was not distributed with this
   - file, You can obtain one at http://mozilla.org/MPL/2.0/. -->
<svg xmlns="http://www.w3.org/2000/svg" width="20" height="20" fill="context-fill" fill-opacity="context-fill-opacity" viewBox="0 0 20 20">
    <path fill-rule="evenodd" d="M10 0c.724 0 1.397.049 2.01.126a3.13 3.13 0 0 1 2.74 3.105v.47q1.217.1 2.513.266A3.14 3.14 0 0 1 20 7.072v7.858a3.12 3.12 0 0 1-2.708 3.1 56.8 56.8 0 0 1-14.555.004A3.14 3.14 0 0 1 0 14.93V7.07a3.12 3.12 0 0 1 2.708-3.1 57 57 0 0 1 2.542-.27v-.47C5.25 1.674 6.401.327 7.963.128l.56-.062A16 16 0 0 1 10 0m0 5.251c-1.402 0-2.737.054-4 .146v11.206c1.432.104 2.77.147 4 .147 1.402 0 2.737-.055 4-.148V5.397a55 55 0 0 0-4-.146m-5.75.303q-.675.07-1.316.153A1.37 1.37 0 0 0 1.75 7.071v7.858c0 .69.519 1.28 1.21 1.369q.656.083 1.29.148zm11.5 10.892q.675-.07 1.316-.152a1.37 1.37 0 0 0 1.184-1.364V7.072c0-.69-.519-1.28-1.21-1.369a55 55 0 0 0-1.29-.15zM10 1.75c-.517 0-1.131.027-1.817.114v.001A1.37 1.37 0 0 0 7 3.23v.351a57 57 0 0 1 6 0v-.35c0-.696-.516-1.282-1.208-1.369A14 14 0 0 0 10 1.75" clip-rule="evenodd" />
</svg>
